source/img/small-cross.svg

<svg enable-background="new 0 0 9 9" viewBox="0 0 9 9" xmlns="http://www.w3.org/2000/svg"><path d="m5.2 4.5 3.7-3.7c.1-.2.1-.5 0-.7s-.5-.1-.7 0l-3.7 3.7-3.7-3.7c-.2-.1-.5-.1-.7 0s-.1.5 0 .7l3.7 3.7-3.7 3.7c-.1.2-.1.5 0 .7.1.1.3.1.4.1s.2 0 .3-.1l3.7-3.7 3.7 3.7c.1.1.2.1.3.1s.2 0 .3-.1c.2-.2.2-.5.1-.7z"/></svg>

<?xml version="1.0" encoding="utf-8"?>
<!-- Generator: Adobe Illustrator 21.0.0, SVG Export Plug-In . SVG Version: 6.00 Build 0)  -->
<svg version="1.1" id="Layer_1" xmlns="http://www.w3.org/2000/svg" xmlns:xlink="http://www.w3.org/1999/xlink" x="0px" y="0px"
	 viewBox="0 0 9 9" style="enable-background:new 0 0 9 9;" xml:space="preserve">
<path d="M5.2,4.5l3.7-3.7C9,0.6,9,0.3,8.9,0.1S8.4,0,8.2,0.1L4.5,3.8L0.8,0.1C0.6,0,0.3,0,0.1,0.1S0,0.6,0.1,0.8l3.7,3.7L0.1,8.2
	C0,8.4,0,8.7,0.1,8.9C0.2,9,0.4,9,0.5,9s0.2,0,0.3-0.1l3.7-3.7l3.7,3.7C8.3,9,8.4,9,8.5,9s0.2,0,0.3-0.1C9,8.7,9,8.4,8.9,8.2
	L5.2,4.5z"/>
</svg>
